X:326
%%etbk:tnset id:99,pos:3,rep:3x,ant:
%%etbk:wsite http://www.thesession.org/tunes/display/816
%%etbk:pldat 2016-06-20T18:34,2016-05-05T14:20,2016-05-03T15:30,2016-03-11T16:25,2016-03-09T17:00,2016-03-08T17:27,2016-03-07T18:33,2016-02-10T16:36,2016-01-17T11:38,2015-11-03T17:09,2015-10-28T16:59,2015-10-26T19:04,2015-10-22T18:34,2015-10-19T18:21,2015-10-06T16:34,2015-06-24T19:06,2015-05-28T19:11,2015-04-23T18:22,2015-03-13T18:27,2015-03-10T16:50,2015-03-06T16:49,2015-02-18T17:46,2015-02-14T12:39,2015-01-28T17:29,2014-11-06T18:28,2014-11-04T16:16,2014-11-02T15:40,2014-11-01T13:52,2014-08-21T19:41,2014-08-18T19:29,2014-06-25T16:14,2014-06-10T18:19,2014-03-06T18:15,2014-03-03T18:35,2014-02-27T18:04,2014-02-23T11:35,2013-10-30T15:51,2013-10-28T19:12,2013-10-26T16:25,2013-10-15T18:20,2013-10-11T18:39,2013-10-08T16:16
T: Tom Billy's
Z: Piano Box Version by Martin Fleischmann
H: Created 2013-02-19 /  Last Modified 2013-02-19
M: 6/8
L: 1/8
R: jig
K: Amix
|: "A"!5!a!1!Aa !3!e!2!c!5!e | !5!ed!2!B {d}B!1!AA | !3!e!5!aa !1!A!3!c!5!e | !4!dcB !1!A!2!c!3!e | 
!5!a2a !3!e!2!c!5!e | !5!ed!2!B {d}B!1!AB | "G"!1!G !2!(3B!3!c!1!d !4!gfe |1 "A"!3!f!1!d!2!B !1!A3:|2 "A"!3!f!1!d!2!B !1!A2!2!f||
|: "G"!1!g!2!g!1!g !2!a2a | !3!ba!1!g !3!fed | !3!faf !4!g2e | !4!g!1!d!2!B !1!de!3!f | 
!1!g!2!g!1!g !2!a2a | !3!b!1!g!2!e !3!ga!5!b | "A"!4!a!3!g!2!e !1!d!2!B!5!e|1 !1!A!2!A!2!A !5!A2f:|2 !1!A!2!A!1!A !1!A3||
|: "A"!2!B!3!cc !5!e!4!dd | !5!ed!2!B !4!dB!1!A | !1!A!2!A!1!A !4!dB!1!A | !1!A2A !5!a!3!e!1!d | 
!2!B!3!cc !4!d!3!c!1!d | !2!ede !3!ga!5!b | "G"!4!a!3!g!2!e !1!d!2!B!5!e | "A"!1!A!2!A!1!A !1!A3:||


